public/logo.svg

<svg width="104" height="32" viewBox="0 0 104 32" fill="none" xmlns="http://www.w3.org/2000/svg">
<path d="M0 23V9L11 16L0 23Z" fill="#D4AF37"/>
<path d="M31.192 18.7129L29.79 19.0489L33.788 8.49482C33.9725 8.00431 34.1857 7.66588 34.4276 7.47953C34.6695 7.29318 35.0054 7.2 35.4354 7.2H39.5419C39.8248 7.2 40.0345 7.25669 40.171 7.37008C40.3076 7.48346 40.3758 7.64125 40.3758 7.84343C40.3758 8.01799 40.3307 8.16371 40.2403 8.28059C40.1499 8.39747 40.017 8.48588 39.8417 8.54584L39.2868 8.71156C39.0324 8.79034 38.8606 8.8987 38.7714 9.03664C38.6823 9.17457 38.6471 9.39156 38.6658 9.6876L39.514 21.6265C39.53 21.9084 39.5826 22.1061 39.6718 22.2195C39.7611 22.3329 39.9147 22.4234 40.1329 22.491L40.6788 22.6542C40.8468 22.7077 40.972 22.7911 41.0542 22.9042C41.1365 23.0173 41.1776 23.1563 41.1776 23.3212C41.1776 23.5159 41.1097 23.6777 40.9739 23.8066C40.8381 23.9355 40.6288 24 40.3459 24H34.0617C33.7739 24 33.5617 23.9414 33.4251 23.8243C33.2886 23.7072 33.2203 23.5513 33.2203 23.3566C33.2203 23.1917 33.2604 23.0497 33.3404 22.9307C33.4205 22.8117 33.5617 22.7195 33.7641 22.6542L34.3181 22.491C34.5748 22.4101 34.748 22.3077 34.8376 22.1837C34.9273 22.0598 34.9642 21.8721 34.9484 21.6209L34.0035 9.26203L35.2702 9.14841L30.3209 22.329C30.1461 22.8038 29.9663 23.1078 29.7815 23.2412C29.5967 23.3746 29.3783 23.4413 29.1264 23.4413C28.9419 23.4413 28.7737 23.418 28.6219 23.3716C28.4702 23.3251 28.328 23.2189 28.1953 23.0529C28.0627 22.8869 27.925 22.625 27.7822 22.2672L22.7099 9.55204L23.9275 9.22147L22.946 21.1865C22.9159 21.5531 22.9968 21.8336 23.1887 22.0283C23.3806 22.2229 23.6339 22.3942 23.9486 22.5422L24.4171 22.7337C24.5434 22.7937 24.6418 22.8707 24.7124 22.9646C24.783 23.0586 24.8182 23.1804 24.8182 23.33C24.8182 23.5306 24.7513 23.6924 24.6175 23.8155C24.4837 23.9385 24.2753 24 23.9924 24H20.2607C19.9778 24 19.7697 23.9414 19.6364 23.8243C19.503 23.7072 19.4363 23.5513 19.4363 23.3566C19.4363 23.1593 19.4909 23.0085 19.6 22.9043C19.7091 22.8001 19.8526 22.7078 20.0305 22.6276L20.4014 22.4896C20.6737 22.381 20.8998 22.2256 21.0796 22.0234C21.2593 21.8213 21.3645 21.5383 21.3952 21.1746L22.3062 10.1228C22.3429 9.6865 22.3135 9.36295 22.2179 9.15219C22.1224 8.94143 21.9426 8.79468 21.6785 8.71194L21.143 8.5562C20.9541 8.49157 20.814 8.40232 20.7229 8.28845C20.6318 8.17458 20.5862 8.02797 20.5862 7.84861C20.5862 7.4162 20.8668 7.2 21.428 7.2H25.5009C25.8996 7.2 26.2199 7.28227 26.4619 7.44681C26.7039 7.61135 26.922 7.94502 27.1161 8.44783L31.192 18.7129ZM50.6578 6.76327C52.01 6.76327 53.227 6.97821 54.3088 7.40808C55.3906 7.83796 56.3142 8.44833 57.0794 9.23922C57.8446 10.0301 58.4316 10.9712 58.8402 12.0625C59.2489 13.1537 59.4532 14.3644 59.4532 15.6945C59.4532 16.9381 59.2506 18.0922 58.8454 19.1569C58.4402 20.2216 57.8587 21.1498 57.1009 21.9414C56.343 22.733 55.4299 23.3487 54.3613 23.7883C53.2928 24.228 52.0962 24.4478 50.7716 24.4478C49.4295 24.4478 48.2187 24.233 47.139 23.8034C46.0594 23.3737 45.1359 22.7632 44.3688 21.9718C43.6016 21.1804 43.0136 20.2378 42.605 19.1438C42.1963 18.0498 41.992 16.8355 41.992 15.5007C41.992 14.2605 42.1945 13.1095 42.5994 12.0476C43.0044 10.9856 43.5857 10.0592 44.3433 9.26842C45.1009 8.4776 46.0126 7.86237 47.0785 7.42273C48.1444 6.98309 49.3375 6.76327 50.6578 6.76327ZM54.7159 18.4475C54.7159 17.3734 54.6235 16.3316 54.4387 15.3221C54.2539 14.3126 53.9996 13.3748 53.6756 12.5089C53.3517 11.6429 52.9773 10.8845 52.5526 10.2337C52.1278 9.58281 51.6733 9.07404 51.189 8.70735C50.7047 8.34065 50.2097 8.15731 49.7038 8.15731C49.0935 8.15731 48.5692 8.33573 48.1307 8.69258C47.6923 9.04942 47.3556 9.56846 47.1209 10.2497C46.8861 10.9309 46.7687 11.7638 46.7687 12.7484C46.7687 13.8259 46.8606 14.8706 47.0445 15.8825C47.2284 16.8944 47.482 17.8342 47.8055 18.7021C48.1289 19.57 48.5025 20.3301 48.926 20.9825C49.3496 21.6348 49.8034 22.1446 50.2873 22.5118C50.7712 22.879 51.2654 23.0626 51.7698 23.0626C52.3913 23.0626 52.9204 22.8842 53.3573 22.5274C53.7942 22.1705 54.1298 21.6498 54.3643 20.9653C54.5987 20.2808 54.7159 19.4415 54.7159 18.4475ZM71.5845 7.84343C71.5845 7.64125 71.6511 7.48346 71.7845 7.37008C71.9178 7.25669 72.1251 7.2 72.4062 7.2H76.2275C76.5132 7.2 76.7234 7.25632 76.8582 7.36897C76.9929 7.48162 77.0603 7.6383 77.0603 7.839C77.0603 7.98557 77.0182 8.10694 76.9341 8.20313C76.8499 8.29931 76.7141 8.38997 76.5266 8.47511L76.1324 8.6371C75.8554 8.76241 75.6221 8.95006 75.4323 9.20006C75.2425 9.45007 75.0629 9.84387 74.8934 10.3815L71.2861 21.3455C71.1808 21.6755 71.1059 21.9386 71.0614 22.1346C71.017 22.3306 70.9948 22.5315 70.9948 22.737V23.3657C70.9948 23.5667 70.9323 23.7226 70.8073 23.8336C70.6824 23.9445 70.523 24 70.3292 24H66.6459C66.4537 24 66.2975 23.9445 66.1771 23.8336C66.0567 23.7226 65.9965 23.5578 65.9965 23.3391V22.7201C65.9965 22.5879 65.9735 22.4361 65.9276 22.2647C65.8817 22.0934 65.8241 21.9025 65.7547 21.6921L61.6192 9.56563C61.528 9.29818 61.4315 9.10356 61.3294 8.98175C61.2274 8.85994 61.0837 8.75664 60.8985 8.67184L60.4897 8.51199C60.1802 8.36968 60.0255 8.14682 60.0255 7.84343C60.0255 7.64125 60.0937 7.48346 60.2303 7.37008C60.3668 7.25669 60.5767 7.2 60.8598 7.2H67.1876C67.4767 7.2 67.6877 7.25669 67.8205 7.37008C67.9533 7.48346 68.0197 7.64125 68.0197 7.84343C68.0197 8.00325 67.9756 8.13116 67.8874 8.22716C67.7991 8.32315 67.662 8.40875 67.4759 8.48395L66.8794 8.65334C66.6732 8.73266 66.5445 8.85788 66.4933 9.02899C66.4421 9.2001 66.475 9.45991 66.592 9.80841L70.4866 21.4467L69.229 22.554L73.3116 10.2452C73.445 9.84259 73.4652 9.51497 73.3721 9.2624C73.279 9.00983 73.0302 8.7999 72.6257 8.63262L72.1164 8.47511C71.943 8.40029 71.811 8.31773 71.7204 8.22744C71.6298 8.13715 71.5845 8.00915 71.5845 7.84343ZM84.0936 21.7807C84.0936 21.9634 84.1449 22.1114 84.2476 22.2248C84.3503 22.3381 84.4988 22.4276 84.693 22.4932L85.2795 22.6519C85.6376 22.7772 85.8167 23.012 85.8167 23.3562C85.8167 23.5514 85.7499 23.7075 85.6163 23.8245C85.4828 23.9415 85.2743 24 84.9908 24H78.5815C78.2995 24 78.0914 23.9415 77.9571 23.8245C77.8228 23.7075 77.7557 23.5514 77.7557 23.3562C77.7557 23.012 77.9347 22.7772 78.2928 22.6519L78.8793 22.4932C79.08 22.4276 79.23 22.3381 79.3295 22.2248C79.429 22.1114 79.4787 21.9634 79.4787 21.7807V9.4193C79.4787 9.2366 79.429 9.08855 79.3295 8.97514C79.23 8.86174 79.08 8.77228 78.8793 8.70677L78.2928 8.54805C77.9347 8.42294 77.7557 8.18806 77.7557 7.84343C77.7557 7.64125 77.8228 7.48346 77.9571 7.37008C78.0914 7.25669 78.2995 7.2 78.5815 7.2H84.9908C85.2743 7.2 85.4828 7.25669 85.6163 7.37008C85.7499 7.48346 85.8167 7.64125 85.8167 7.84343C85.8167 8.18806 85.6376 8.42294 85.2795 8.54805L84.693 8.70677C84.4988 8.77228 84.3503 8.86174 84.2476 8.97514C84.1449 9.08855 84.0936 9.2366 84.0936 9.4193V21.7807ZM101.853 21.5216C102.028 21.7759 102.18 21.9723 102.307 22.1109C102.435 22.2495 102.574 22.356 102.723 22.4304C102.873 22.5048 103.058 22.5787 103.279 22.6519C103.468 22.7277 103.615 22.8222 103.719 22.9353C103.824 23.0485 103.876 23.1889 103.876 23.3566C103.876 23.5529 103.808 23.7092 103.672 23.8255C103.536 23.9418 103.327 24 103.044 24H96.1035C95.8215 24 95.6123 23.9422 95.4758 23.8265C95.3392 23.7109 95.2709 23.5556 95.2709 23.3608C95.2709 23.1753 95.3225 23.0263 95.4256 22.9139C95.5287 22.8016 95.7053 22.7023 95.9555 22.6162C96.1879 22.5483 96.3531 22.4535 96.451 22.3319C96.5488 22.2103 96.5823 22.0609 96.5513 21.8837C96.5204 21.7066 96.4282 21.5015 96.2749 21.2684L88.526 9.52883C88.3999 9.3335 88.2832 9.17539 88.176 9.05451C88.0688 8.93362 87.9515 8.83448 87.8243 8.75707C87.6971 8.67966 87.5389 8.60973 87.3496 8.54729C87.1229 8.45037 86.9691 8.34976 86.8883 8.24547C86.8075 8.14118 86.767 8.00717 86.767 7.84343C86.767 7.64074 86.8356 7.48283 86.9726 7.3697C87.1097 7.25657 87.3192 7.2 87.6014 7.2H94.2768C94.5661 7.2 94.7713 7.25801 94.8923 7.37402C95.0133 7.49004 95.0738 7.64644 95.0738 7.84324C95.0738 8.01485 95.0415 8.15468 94.977 8.26271C94.9125 8.37075 94.7989 8.45033 94.6361 8.50144L94.1707 8.61241C93.9235 8.6735 93.7849 8.77542 93.7547 8.91815C93.7245 9.06089 93.8005 9.2736 93.9827 9.55629L101.853 21.5216ZM96.5947 15.7029L95.0401 15.2356L98.8443 10.1066C99.1233 9.72451 99.2414 9.41458 99.1988 9.17683C99.1561 8.93907 98.9758 8.76424 98.6577 8.65232L98.2602 8.53075C98.1148 8.46784 97.9968 8.37946 97.9063 8.26559C97.8157 8.15172 97.7704 8.01113 97.7704 7.8438C97.7704 7.64162 97.8342 7.48384 97.9616 7.37046C98.0891 7.25707 98.289 7.20038 98.5615 7.20038H102.346C102.9 7.20038 103.177 7.40963 103.177 7.82814C103.177 7.99386 103.114 8.13744 102.987 8.25886C102.861 8.38029 102.671 8.50125 102.416 8.62175C102.077 8.76365 101.777 8.97617 101.517 9.25931C101.257 9.54245 100.91 9.97008 100.476 10.5422L96.5947 15.7029ZM93.7073 15.2273L95.2525 15.7872L91.1281 21.1963C90.8317 21.591 90.7096 21.9014 90.7617 22.1277C90.8138 22.354 90.9879 22.5203 91.2839 22.6267L91.6209 22.7223C91.784 22.7912 91.9049 22.8738 91.9838 22.97C92.0627 23.0662 92.1021 23.195 92.1021 23.3564C92.1021 23.5512 92.0369 23.7072 91.9064 23.8243C91.776 23.9414 91.5775 24 91.3109 24H87.5089C87.2335 24 87.0275 23.9414 86.8911 23.8243C86.7547 23.7072 86.6865 23.5505 86.6865 23.3542C86.6865 23.206 86.7319 23.0783 86.8228 22.9711C86.9137 22.8638 87.0802 22.7537 87.3223 22.6407C87.6647 22.4851 87.96 22.3146 88.2083 22.129C88.4566 21.9434 88.6874 21.7286 88.9006 21.4845C89.1138 21.2403 89.3405 20.9611 89.5805 20.6466L93.7073 15.2273Z" fill="#D4AF37"/>
</svg>

<svg xmlns="http://www.w3.org/2000/svg" width="104" height="32" fill="none" viewBox="0 0 104 32"><path fill="#d4af37" d="M0 23V9l11 7zm31.192-4.287-1.402.336 3.998-10.554q.276-.736.64-1.015.362-.28 1.007-.28h4.107q.424 0 .629.17a.58.58 0 0 1 .205.473q0 .262-.136.438a.8.8 0 0 1-.398.265l-.555.166q-.382.117-.516.325-.134.207-.105.65l.848 11.94q.024.422.158.593.135.17.46.271l.547.163a.7.7 0 0 1 .375.25.7.7 0 0 1 .124.417.64.64 0 0 1-.204.486q-.204.193-.628.193h-6.284q-.432 0-.637-.176a.59.59 0 0 1-.205-.467q0-.247.12-.426.12-.18.424-.277l.554-.163q.385-.12.52-.307.134-.186.11-.563l-.944-12.359 1.266-.114-4.95 13.181q-.261.712-.538.912a1.1 1.1 0 0 1-.656.2q-.276 0-.504-.07-.228-.069-.427-.318t-.413-.786L22.71 9.552l1.217-.33-.981 11.965q-.046.55.243.841.288.292.76.514l.468.192q.19.09.295.23.106.142.106.366 0 .3-.2.486-.201.184-.626.184h-3.731q-.424 0-.625-.176a.6.6 0 0 1-.2-.467q0-.296.164-.453.165-.156.43-.276l.371-.138q.41-.163.679-.467.27-.303.315-.848l.911-11.052q.056-.654-.088-.97-.143-.317-.54-.441l-.535-.156a.9.9 0 0 1-.42-.268.68.68 0 0 1-.137-.44q0-.648.842-.648h4.073q.599 0 .96.247.364.247.655 1zm19.466-11.95q2.028 0 3.65.645A7.8 7.8 0 0 1 57.08 9.24a8.1 8.1 0 0 1 1.761 2.823q.613 1.637.613 3.633 0 1.865-.608 3.462a8.2 8.2 0 0 1-1.744 2.784 7.9 7.9 0 0 1-2.74 1.847q-1.602.66-3.59.66-2.013 0-3.632-.645a7.8 7.8 0 0 1-2.77-1.831 8.1 8.1 0 0 1-1.764-2.828q-.613-1.64-.613-3.643 0-1.86.607-3.453a8.2 8.2 0 0 1 1.744-2.78 7.9 7.9 0 0 1 2.735-1.845q1.6-.66 3.58-.66m4.058 11.685q0-1.612-.277-3.126a16.5 16.5 0 0 0-.763-2.813 11.6 11.6 0 0 0-1.123-2.275q-.638-.976-1.364-1.527t-1.485-.55q-.915 0-1.573.536-.658.534-1.01 1.557-.352 1.021-.352 2.498 0 1.617.276 3.135.275 1.517.76 2.82.486 1.3 1.121 2.28.636.978 1.361 1.529.726.55 1.483.55.931 0 1.587-.535t1.007-1.562q.352-1.026.352-2.517M71.585 7.843q0-.303.2-.473t.621-.17h3.822q.427 0 .63.169a.58.58 0 0 1 .202.47.53.53 0 0 1-.126.364q-.126.144-.407.272l-.395.162a1.8 1.8 0 0 0-.7.563q-.285.375-.539 1.182l-3.607 10.964q-.158.495-.225.789a2.7 2.7 0 0 0-.066.602v.629q0 .3-.188.468a.7.7 0 0 1-.478.166h-3.683a.67.67 0 0 1-.469-.166q-.18-.167-.18-.495v-.619q0-.198-.07-.455a11 11 0 0 0-.172-.573L61.619 9.566q-.136-.402-.29-.584a1.2 1.2 0 0 0-.43-.31l-.41-.16q-.463-.213-.463-.669 0-.303.204-.473.206-.17.63-.17h6.328q.434 0 .632.17.2.17.2.473 0 .24-.133.384a1.1 1.1 0 0 1-.411.257l-.597.17q-.31.119-.386.375t.099.78l3.895 11.638-1.258 1.107 4.083-12.309q.2-.603.06-.983-.14-.378-.746-.63l-.51-.157a1.3 1.3 0 0 1-.396-.248q-.135-.135-.135-.384m12.509 13.938q-.001.273.154.444.153.17.445.268l.587.159q.537.188.537.704a.6.6 0 0 1-.2.468q-.201.176-.626.176h-6.41q-.423 0-.624-.175a.59.59 0 0 1-.201-.469q0-.516.537-.704l.586-.159q.302-.098.45-.268.15-.171.15-.444V9.419q0-.273-.15-.444a1 1 0 0 0-.45-.268l-.586-.159q-.537-.187-.537-.705 0-.303.201-.473.202-.17.625-.17h6.409q.425 0 .625.17t.2.473q0 .518-.537.705l-.586.159a1.03 1.03 0 0 0-.445.268.64.64 0 0 0-.154.444zm17.759-.26q.263.382.454.59.192.208.416.32.225.111.556.22.284.115.44.284a.6.6 0 0 1 .157.422.59.59 0 0 1-.204.469q-.204.174-.628.174h-6.94q-.424 0-.628-.174a.58.58 0 0 1-.205-.465q0-.279.155-.447t.53-.298q.348-.102.495-.284a.54.54 0 0 0 .1-.448q-.046-.266-.276-.616l-7.749-11.74a4 4 0 0 0-.35-.473 1.5 1.5 0 0 0-.352-.298 2.3 2.3 0 0 0-.474-.21q-.34-.145-.462-.302a.64.64 0 0 1-.121-.402.58.58 0 0 1 .206-.473q.205-.17.628-.17h6.676q.434 0 .615.174a.62.62 0 0 1 .182.47.8.8 0 0 1-.097.419q-.097.162-.34.238l-.466.111q-.371.092-.416.306-.045.215.228.638zm-5.258-5.818-1.555-.467 3.804-5.13q.419-.572.355-.93-.064-.356-.541-.524l-.398-.121a.9.9 0 0 1-.354-.265.66.66 0 0 1-.136-.422q0-.303.192-.474.19-.17.6-.17h3.784q.831 0 .831.628 0 .25-.19.43a2.2 2.2 0 0 1-.571.364 2.55 2.55 0 0 0-.899.637q-.39.425-1.041 1.283zm-2.888-.476 1.546.56-4.125 5.41q-.444.591-.366.93t.522.5l.337.095a.9.9 0 0 1 .363.248.6.6 0 0 1 .118.386q0 .292-.196.468-.195.176-.595.176h-3.802q-.412 0-.618-.176a.59.59 0 0 1-.205-.47q0-.222.137-.383.135-.16.5-.33a4.8 4.8 0 0 0 .885-.512q.373-.278.693-.645.32-.366.68-.837z"/></svg>
